X:1
T:Title
%%score { ( 1 3 ) | ( 2 4 ) }
L:1/8
M:4/4
K:Ab
V:1 treble nm="Grand Piano"
V:3 treble 
V:2 bass 
V:4 bass 
V:1
 z4 z2[Q:1/4=96] E2 | A2 E>F G2 A>B | c2 c4 c2 | [Fd]2 [DF]>[EG] [FA]2 [FB]>[=EA] | [Ec]6 c2 | %5
 [Ge]2 [GB]>[Ac] [Gd]2 [Gc]>[GB] | A2 A>B c2 c2 | B2 c>B F2 [=DB]>[Dc] |[M:3/4] B6[K:bass] | %9
[M:1/4] E2 |[M:4/4][K:treble] A,4 z [A,EA]BB | c2 c4 c2 | [Fd]2 [DF]>[EG] [FA]2 [FB]>[FA] | %13
 [Ec]6 [Ec]2 | e2- [Ge-][Ae-] e[Gd]BB | c2 c4 [Fd]2 | c2 z E B3 A |[M:3/4] [CA]6 |] %18
V:2
 z4 z2 E,2 | A,2 E,>F, G,2 A,>B, | [A,E]2 [A,E]4 [A,G]2 | %3
 [D,A,]2 [D,A,]>[D,A,] [D,A,]2 [D,A,]>[D,A,] | [A,,A,]6 [A,E]2 | %5
 [E,B,]2 [E,D]>[E,C] [E,B,]2 [=E,B,]>[E,C] | [G,CF]2 [G,CF]>[G,E] [A,EA]2 [=A,E_G]2 | %7
 [B,EG]2 [B,=DA]>[B,DF][K:bass] [B,D]2 [B,,A,]>[B,,A,] |[M:3/4] [E,G,E]6 |[M:1/4] [C,A,][B,,G,] | %10
[M:4/4] A,,2 C,E, A,C,[E,G,E][E,G,E] | [A,E]2 [A,E]4 [A,_G]2 | %12
 [D,A,]2 [D,A,]>[D,A,] [D,A,]2 [D,A,]>[D,A,] | A,2- [C,A,-][E,A,] A,2 A,2 | %14
 B,2 B,C D[E,B,][E,G,E][E,G,E] | [A,E]2 [A,E]4 [D,A,]2 | [E,A,E]2 z [E,A,C] [E,G,D]3 [E,D] | %17
[M:3/4] [A,,E,]6 |] %18
V:3
 x8 | x8 | x8 | x8 | x8 | x8 | x8 | x8 |[M:3/4] z2 z2 z[K:bass] D, |[M:1/4] z D | %10
[M:4/4][K:treble] [CA]6 z2 | x8 | x8 | x8 | G2 z2 B2 z2 | x8 | x8 |[M:3/4] x6 |] %18
V:4
 x8 | x8 | x8 | x8 | x8 | x8 | x8 | x4[K:bass] x4 |[M:3/4] x6 |[M:1/4] x2 |[M:4/4] x8 | x8 | x8 | %13
 A,,2 z2 z4 | E,6 z2 | x8 | x8 |[M:3/4] x6 |] %18

